X: 4314
T: GIPSIES' CHORUS. (Bohemian Girl.)
%R: air
B: James Kerr "Merry Melodies" v.4 p.33 #314
Z: 2016 John Chambers <jc:trillian.mit.edu>
M: C
L: 1/8
K: G
[|\
(B3d) (GBde) | (d2-(3deB) d2z2 |\
(B3d) (GBde) | (e2- (3efA) c2z2 |\
(B3d) (GBde) | "_fz"(f3e) d2("_fz"f>e) |\
d2(f>e) d2("_fz"f>e) | d2(.D2 .D2.D2) |\
(e3f) (efef) | (d3e) (dede) |
"^>"c2"^>"B2 "^>"A2"^>"G2 | "^>"F2"^>"G2 "^>"A2(de) |\
d6 (de) | d6 (de) |\
d6 (de) | (d3e) (decd) |\
(B3d) (GBde) | (d2-(3deB) d2z2 |\
(B3d) (GBde) | (e2-(3efA) c2z2 |
(B3d) G(GAB) | (B2>>A2) G2("_fz"B>A) |\
G2("_fz"B>A) G2("_fz"B>A) | G2z2 z4 |\
(A3B) (ABAB) | G2z2 z4 |\
(a3b) (abab) | g2z2 (.G2.G2) |\
HG8 |]

%%sep 1 1 500
%%sep 1 1 500

